images/brands/gitbook.svg

<svg fill="none" height="180" viewBox="0 0 520 180" width="520" xmlns="http://www.w3.org/2000/svg"><g fill="#181c1f"><path d="m79.5882 98.9995c4.7306 2.7525 7.0959 4.1295 9.6935 4.1315 2.5977.002 4.9653-1.37 9.7007-4.1143l30.1856-17.4935c1.362-.7898 2.202-2.2536 2.202-3.8383 0-1.5846-.84-3.0486-2.202-3.8382l-30.1966-17.4999c-4.7301-2.7414-7.0953-4.1121-9.6905-4.1111-2.595.001-4.9591 1.3736-9.6873 4.1187l-25.9587 15.0712c-.1923.1117-.2885.1675-.3783.2205-8.8672 5.2333-14.3457 14.7878-14.4189 25.1467-.0008.1047-.0008.2167-.0008.4404 0 .2236 0 .3354.0008.44.073 10.3468 5.5393 19.8928 14.3908 25.1298.0895.054.1855.109.3775.221l16.2606 9.465c9.4749 5.516 14.2123 8.273 19.4148 8.275s9.9418-2.752 19.4206-8.261l17.165-9.977c4.746-2.758 7.119-4.137 8.422-6.411s1.303-5.035 1.303-10.559v-10.6693c0-1.5321-.823-2.9442-2.151-3.6897-1.284-.7215-2.85-.7107-4.126.0281l-35.1969 20.3979c-2.3614 1.369-3.5422 2.053-4.8379 2.054-1.2957 0-2.4769-.684-4.8393-2.051l-23.8223-13.7862c-1.1933-.6907-1.7899-1.0359-2.2692-1.0982-1.0926-.1422-2.1431.4748-2.5594 1.5033-.1825.4509-.1787 1.1446-.1714 2.5321.0054 1.021.0082 1.531.1029 2.001.2119 1.052.7608 2.004 1.5622 2.711.3578.316.7965.571 1.6738 1.081l25.47 14.821c2.3685 1.378 3.5528 2.067 4.8531 2.068 1.3004 0 2.485-.689 4.8542-2.065l31.2182-18.143c.81-.471 1.214-.706 1.518-.529.303.176.303.647.303 1.589v4.84c0 1.38 0 2.071-.326 2.639-.325.569-.919.914-2.105 1.603l-25.7496 14.965c-4.7404 2.755-7.1105 4.132-9.7123 4.131s-4.9707-1.381-9.7086-4.14l-24.0907-14.031c-.0765-.044-.1147-.066-.1504-.087-5.0512-2.976-8.168-8.42-8.1973-14.3186-.0002-.0417-.0002-.0862-.0002-.1752v-4.4425c0-3.256 1.7201-6.2657 4.5143-7.8985 2.4691-1.4429 5.5145-1.4457 7.9862-.0076z"/><path d="m199.902 119.395c-15.58 0-24.979-9.349-24.979-22.895 0-13.3552 9.462-22.8945 25.042-22.8945 14.13 0 21.763 6.8683 22.393 15.899h-9.146c-.442-3.625-3.596-8.1402-12.742-8.1402h-1.009c-9.463 0-15.77 5.5327-15.77 15.1357s6.433 15.136 15.77 15.136h1.009c9.209 0 14.193-4.325 14.193-7.95v-.508h-14.509v-7.7591h16.842c3.849 0 5.994 2.2259 5.994 6.1051v17.235h-8.327v-4.961c-1.703 2.163-6.182 5.597-14.761 5.597z"/><path d="m236.954 118.759h-8.706v-44.5177h8.706z"/><path d="m267.825 118.759h-8.704v-36.7589h-17.789v-7.7588h44.282v7.7588h-17.789z"/><path d="m315.84 118.759h-25.862v-44.5177h25.106c7.885 0 13.941 4.4517 13.941 11.7654 0 5.0876-3.218 8.7125-7.003 10.1118 4.542 1.0174 8.074 4.7695 8.074 10.5565 0 7.378-6.371 12.084-14.256 12.084zm-17.157-36.7589v10.3025h15.454c3.849 0 6.119-1.7807 6.119-5.342 0-2.9254-2.27-4.9605-6.119-4.9605zm0 18.0609v10.939h15.896c4.163 0 6.75-2.162 6.75-5.533 0-3.625-2.587-5.406-6.75-5.406z"/><path d="m358.882 119.395c-14.319 0-25.044-8.649-25.044-22.895 0-14.2455 10.725-22.8945 25.044-22.8945 14.317 0 24.979 8.649 24.979 22.8945 0 14.246-10.662 22.895-24.979 22.895zm-.506-7.759h1.009c8.516 0 15.707-5.533 15.707-15.136s-7.191-15.1357-15.707-15.1357h-1.009c-8.516 0-15.769 5.5327-15.769 15.1357s7.253 15.136 15.769 15.136z"/><path d="m412.168 119.395c-14.319 0-25.042-8.649-25.042-22.895 0-14.2455 10.723-22.8945 25.042-22.8945s24.979 8.649 24.979 22.8945c0 14.246-10.66 22.895-24.979 22.895zm-.505-7.759h1.01c8.515 0 15.707-5.533 15.707-15.136s-7.192-15.1357-15.707-15.1357h-1.01c-8.515 0-15.77 5.5327-15.77 15.1357s7.255 15.136 15.77 15.136z"/><path d="m486.156 118.759h-11.481l-18.041-20.0967-6.308 5.4057v14.691h-8.704v-44.5177h8.704v19.6512l22.772-19.6512h12.048l-22.078 18.9517z"/></g></svg>

<svg width="520" height="180" viewBox="0 0 520 180" fill="none" xmlns="http://www.w3.org/2000/svg">
<path d="M79.5882 98.9995C84.3188 101.752 86.6841 103.129 89.2817 103.131C91.8794 103.133 94.247 101.761 98.9824 99.0167L129.168 81.5232C130.53 80.7334 131.37 79.2696 131.37 77.6849C131.37 76.1003 130.53 74.6363 129.168 73.8467L98.9714 56.3468C94.2413 53.6054 91.8761 52.2347 89.2809 52.2357C86.6859 52.2367 84.3218 53.6093 79.5936 56.3544L53.6349 71.4256C53.4426 71.5373 53.3464 71.5931 53.2566 71.6461C44.3894 76.8794 38.9109 86.4339 38.8377 96.7928C38.8369 96.8975 38.8369 97.0095 38.8369 97.2332C38.8369 97.4568 38.8369 97.5686 38.8377 97.6732C38.9107 108.02 44.377 117.566 53.2285 122.803C53.318 122.857 53.414 122.912 53.606 123.024L69.8666 132.489C79.3415 138.005 84.0789 140.762 89.2814 140.764C94.4839 140.766 99.2232 138.012 108.702 132.503L125.867 122.526C130.613 119.768 132.986 118.389 134.289 116.115C135.592 113.841 135.592 111.08 135.592 105.556V94.8867C135.592 93.3546 134.769 91.9425 133.441 91.197C132.157 90.4755 130.591 90.4863 129.315 91.2251L94.1181 111.623C91.7567 112.992 90.5759 113.676 89.2802 113.677C87.9845 113.677 86.8033 112.993 84.4409 111.626L60.6186 97.8398C59.4253 97.1491 58.8287 96.8039 58.3494 96.7416C57.2568 96.5994 56.2063 97.2164 55.79 98.2449C55.6075 98.6958 55.6113 99.3895 55.6186 100.777C55.624 101.798 55.6268 102.308 55.7215 102.778C55.9334 103.83 56.4823 104.782 57.2837 105.489C57.6415 105.805 58.0802 106.06 58.9575 106.57L84.4275 121.391C86.796 122.769 87.9803 123.458 89.2806 123.459C90.581 123.459 91.7656 122.77 94.1348 121.394L125.353 103.251C126.163 102.78 126.567 102.545 126.871 102.722C127.174 102.898 127.174 103.369 127.174 104.311V109.151C127.174 110.531 127.174 111.222 126.848 111.79C126.523 112.359 125.929 112.704 124.743 113.393L98.9934 128.358C94.253 131.113 91.8829 132.49 89.2811 132.489C86.6793 132.488 84.3104 131.108 79.5725 128.349L55.4818 114.318C55.4053 114.274 55.3671 114.252 55.3314 114.231C50.2802 111.255 47.1634 105.811 47.1341 99.9124C47.1339 99.8707 47.1339 99.8262 47.1339 99.7372V95.2947C47.1339 92.0387 48.854 89.029 51.6482 87.3962C54.1173 85.9533 57.1627 85.9505 59.6344 87.3886L79.5882 98.9995Z" fill="#181C1F"/>
<path d="M199.902 119.395C184.322 119.395 174.923 110.046 174.923 96.5C174.923 83.1448 184.385 73.6055 199.965 73.6055C214.095 73.6055 221.728 80.4738 222.358 89.5045H213.212C212.77 85.8795 209.616 81.3643 200.47 81.3643H199.461C189.998 81.3643 183.691 86.897 183.691 96.5C183.691 106.103 190.124 111.636 199.461 111.636H200.47C209.679 111.636 214.663 107.311 214.663 103.686V103.178H200.154V95.4189H216.996C220.845 95.4189 222.99 97.6448 222.99 101.524V118.759H214.663V113.798C212.96 115.961 208.481 119.395 199.902 119.395Z" fill="#181C1F"/>
<path d="M236.954 118.759H228.248V74.2413H236.954V118.759Z" fill="#181C1F"/>
<path d="M267.825 118.759H259.121V82.0001H241.332V74.2413H285.614V82.0001H267.825V118.759Z" fill="#181C1F"/>
<path d="M315.84 118.759H289.978V74.2413H315.084C322.969 74.2413 329.025 78.693 329.025 86.0067C329.025 91.0943 325.807 94.7192 322.022 96.1185C326.564 97.1359 330.096 100.888 330.096 106.675C330.096 114.053 323.725 118.759 315.84 118.759ZM298.683 82.0001V92.3026H314.137C317.986 92.3026 320.256 90.5219 320.256 86.9606C320.256 84.0352 317.986 82.0001 314.137 82.0001H298.683ZM298.683 100.061V111H314.579C318.742 111 321.329 108.838 321.329 105.467C321.329 101.842 318.742 100.061 314.579 100.061H298.683Z" fill="#181C1F"/>
<path d="M358.882 119.395C344.563 119.395 333.838 110.746 333.838 96.5C333.838 82.2545 344.563 73.6055 358.882 73.6055C373.199 73.6055 383.861 82.2545 383.861 96.5C383.861 110.746 373.199 119.395 358.882 119.395ZM358.376 111.636H359.385C367.901 111.636 375.092 106.103 375.092 96.5C375.092 86.897 367.901 81.3643 359.385 81.3643H358.376C349.86 81.3643 342.607 86.897 342.607 96.5C342.607 106.103 349.86 111.636 358.376 111.636Z" fill="#181C1F"/>
<path d="M412.168 119.395C397.849 119.395 387.126 110.746 387.126 96.5C387.126 82.2545 397.849 73.6055 412.168 73.6055C426.487 73.6055 437.147 82.2545 437.147 96.5C437.147 110.746 426.487 119.395 412.168 119.395ZM411.663 111.636H412.673C421.188 111.636 428.38 106.103 428.38 96.5C428.38 86.897 421.188 81.3643 412.673 81.3643H411.663C403.148 81.3643 395.893 86.897 395.893 96.5C395.893 106.103 403.148 111.636 411.663 111.636Z" fill="#181C1F"/>
<path d="M486.156 118.759H474.675L456.634 98.6623L450.326 104.068V118.759H441.622V74.2413H450.326V93.8925L473.098 74.2413H485.146L463.068 93.193L486.156 118.759Z" fill="#181C1F"/>
</svg>
